design/System/file_pdf.svg

<svg width="24" height="24" viewBox="0 0 24 24"  xmlns="http://www.w3.org/2000/svg">
<g clip-path="url(#clip0)">
<path d="M19.2006 6.667L12.343 0H2.74324C2.01635 0.0021103 1.31986 0.283775 0.805874 0.783477C0.291887 1.28318 0.00217063 1.96032 0 2.667V21.333C0.00217063 22.0397 0.291887 22.7168 0.805874 23.2165C1.31986 23.7162 2.01635 23.9979 2.74324 24H16.4574C17.1843 23.9979 17.8808 23.7162 18.3947 23.2165C18.9087 22.7168 19.1984 22.0397 19.2006 21.333V20H24.001V9.333H19.2006V6.667ZM11.657 2.16L16.9778 7.333H11.657V2.16ZM22.6289 10.667V18.667H6.17152V10.667H22.6289Z" />
<path d="M11.7574 13.6871C11.7741 13.9311 11.7334 14.1756 11.6384 14.4021C11.5434 14.6285 11.3966 14.831 11.2092 14.9941C10.7579 15.3168 10.2052 15.477 9.64574 15.4471H9.15202V17.3401H8V12.0071H9.7558C10.2957 11.9643 10.8328 12.1163 11.2647 12.4341C11.4307 12.599 11.5601 12.7953 11.6449 13.0109C11.7296 13.2264 11.7679 13.4566 11.7574 13.6871ZM9.12424 14.5401H9.50791C9.79008 14.5585 10.0703 14.4834 10.303 14.3271C10.39 14.2546 10.4597 14.1646 10.5071 14.0632C10.5546 13.9618 10.5786 13.8515 10.5776 13.7401C10.5843 13.6329 10.5683 13.5255 10.5306 13.4245C10.4929 13.3236 10.4344 13.2312 10.3585 13.1531C10.1623 13.009 9.91724 12.9422 9.67248 12.9661H9.15202V14.5391L9.12424 14.5401Z" />
<path d="M17.3262 14.6461C17.3525 15.0175 17.2976 15.3902 17.1652 15.7396C17.0328 16.0889 16.8258 16.4071 16.5578 16.6731C15.9386 17.177 15.1413 17.4256 14.3361 17.3661H12.7726V12.0331H14.5007C15.2622 11.9892 16.011 12.2381 16.5856 12.7261C16.8409 12.9776 17.0388 13.2785 17.1664 13.6094C17.294 13.9402 17.3485 14.2934 17.3262 14.6461ZM16.1197 14.6731C16.1197 13.5261 15.5982 12.9661 14.5562 12.9661H13.9247V16.4331H14.4184C15.5704 16.4061 16.1186 15.8461 16.1186 14.6731H16.1197Z" />
<path d="M19.6025 17.3661H18.4504V12.0331H21.6051V12.9661H19.6025V14.3531H21.4673V15.2861H19.6025V17.3661Z" />
</g>
<defs>
<clipPath id="clip0">
<rect width="24" height="24" fill="white"/>
</clipPath>
</defs>
</svg>

<svg xmlns="http://www.w3.org/2000/svg" width="24" height="24" viewBox="0 0 24 24"><path d="M19.2,6.67,12.34,0H2.74A2.77,2.77,0,0,0,.81.78,2.62,2.62,0,0,0,0,2.67V21.33a2.62,2.62,0,0,0,.81,1.89A2.77,2.77,0,0,0,2.74,24H16.46a2.77,2.77,0,0,0,1.93-.78,2.62,2.62,0,0,0,.81-1.89V20H24V9.33H19.2ZM11.66,2.16,17,7.33H11.66Zm11,8.51v8H6.17v-8Z"/><path d="M11.76,13.69a1.71,1.71,0,0,1-.12.71,1.58,1.58,0,0,1-.43.59,2.41,2.41,0,0,1-1.56.46h-.5v1.89H8V12H9.76a2.22,2.22,0,0,1,1.5.42,1.67,1.67,0,0,1,.38.58A1.6,1.6,0,0,1,11.76,13.69Zm-2.64.85h.39a1.29,1.29,0,0,0,.79-.21.9.9,0,0,0,.21-.27.88.88,0,0,0,.07-.32.89.89,0,0,0-.05-.32,1,1,0,0,0-.17-.27A1,1,0,0,0,9.67,13H9.15v1.57Z"/><path d="M17.33,14.65a2.7,2.7,0,0,1-.16,1.09,2.64,2.64,0,0,1-.61.93,3.13,3.13,0,0,1-2.22.7H12.77V12H14.5a3,3,0,0,1,2.09.7,2.47,2.47,0,0,1,.74,1.92Zm-1.21,0c0-1.14-.52-1.7-1.56-1.7h-.64v3.46h.5a1.53,1.53,0,0,0,1.7-1.76Z"/><path d="M19.6,17.37H18.45V12h3.16V13h-2v1.38h1.87v.94H19.6Z"/></svg>
